X: 123
%
U:~=!turn!
T: Craig O' Barns
C:Very old
O:Scotland
B:Keith Norman MacDonald : "The Skye collection of the best reels & strathspeys extant" : 1887
Z:Ralph Palmer
R:Strathspey
M:C
L:1/8
K:G aeolian
{ABc}d2 {/d}c>A G<G G>A | {AB} c>Fc<A {AB}c>FA<c | {ABc} d2 {/d}cA G<G TG>A | {/B}c>F {/d}c>A {/^F}G2 G2 :|
{/E}F>Ac>d {/d}cA {AB}c2 | d>=e(f>a) g>f{/^c}d>e | f<ad<f {/E}F>GA>c | d>f {/d}c>A {/^F}G2 (G>A) |
{/E}F>A(c>d) {/d}c<A {/B}c2 | d>=ef>a Tg>f{/^c}d>e | f<ad<f {/E}F>GA>c | d<f {/d}c>A {/^F}G2 G2 |]


